X:1
T:Boring the Leather [F]
S:William Litten (1800)
F:"http://www.tunearch.org/wiki/Boring_the_Leather_(1)" 2012-9-25
N:It's not clear whether this tune is in F major or D minor.
M:6/8
L:1/8
K:F
A/G/ |\
FDD FFA | cAA BAG | FDD FAB | cAF G2A |\
FDD FGA | cAG Acd | fef dfd | cAF G2 :|
|: A |\
cAA fef | cAA c2f | cAA fef | cAF G2A |\
cAA fdf | gfg a2g | fef dfd | cAF G2 :|
